assets/misc-grey/MiscGrey56.svg

<svg width="35" height="47" viewBox="0 0 35 47" fill="none" xmlns="http://www.w3.org/2000/svg">
<path fill-rule="evenodd" clip-rule="evenodd" d="M16.416 33.65V35.43C16.416 36.26 17.087 36.93 17.916 36.93C18.744 36.93 19.416 36.26 19.416 35.43V33.64C20.335 33.11 20.963 32.13 20.963 31C20.963 29.32 19.596 27.95 17.916 27.95C16.235 27.95 14.868 29.32 14.868 31C14.868 32.11 15.468 33.11 16.416 33.65ZM31.854 40.16C31.854 40.52 31.77 43.73 28.856 43.85C24.507 44.02 7.21802 43.87 7.00302 43.86C6.73602 43.86 4.39402 43.73 3.94702 39.54V22.16H31.854V40.16ZM17.856 3.96997C26.281 3.96997 26.764 10.96 26.791 11.71V19.16H8.92202L8.92102 12.12C8.93002 11.78 9.22002 3.96997 17.856 3.96997ZM33.354 19.16H29.791L29.79 11.67C29.696 7.96997 27.08 0.969971 17.856 0.969971C8.63102 0.969971 6.01602 8.20997 5.92202 12.08V19.16H2.44702C1.61902 19.16 0.947021 19.83 0.947021 20.66V39.62C0.947021 39.67 0.950021 39.72 0.955021 39.77C1.53402 45.54 5.22902 46.97 7.01502 46.86C7.47002 46.87 14.444 46.93 20.598 46.93C24.117 46.93 27.369 46.91 28.978 46.85C33.625 46.66 34.854 42.39 34.854 40.16V20.66C34.854 19.83 34.182 19.16 33.354 19.16Z" fill="#1A1919"/>
</svg>

<svg xmlns="http://www.w3.org/2000/svg" viewBox="0 0 35 47"><path fill-rule="evenodd" d="M16.416 33.65v1.78a1.5 1.5 0 103 0v-1.79c.919-.53 1.547-1.51 1.547-2.64 0-1.68-1.367-3.05-3.047-3.05a3.046 3.046 0 00-1.5 5.7zm15.438 6.51c0 .36-.084 3.57-2.998 3.69-4.349.17-21.638.02-21.853.01-.267 0-2.609-.13-3.056-4.32V22.16h27.907v18zM17.856 3.97c8.425 0 8.908 6.99 8.935 7.74v7.45H8.922l-.001-7.04c.009-.34.299-8.15 8.935-8.15zm15.498 15.19h-3.563l-.001-7.49C29.696 7.97 27.08.97 17.856.97 8.631.97 6.016 8.21 5.922 12.08v7.08H2.447a1.5 1.5 0 00-1.5 1.5v18.96c0 .05.003.1.008.15.579 5.77 4.274 7.2 6.06 7.09.455.01 7.429.07 13.583.07 3.519 0 6.771-.02 8.38-.08 4.647-.19 5.876-4.46 5.876-6.69v-19.5a1.5 1.5 0 00-1.5-1.5z" clip-rule="evenodd"/></svg>
